assets/icons/satelitedish.svg

<svg xml:space="preserve" fill="#ebebeb" style="fill-rule:evenodd;clip-rule:evenodd;stroke-linejoin:round;stroke-miterlimit:2" viewBox="0 0 352 353" xmlns="http://www.w3.org/2000/svg"><path d="M7491 8701c-38-10-67-55-55-87 15-45 51-62 149-74 106-13 165-30 260-78 82-41 122-69 188-131 124-117 212-279 252-461 27-121 51-160 96-160 65 0 84 49 64 166-20 110-46 186-106 311-66 135-176 254-327 353-126 84-223 122-362 145-58 9-112 18-120 20-8 1-26 0-39-4m-1213-158c-28-18-129-164-171-248-35-72-74-192-99-309-31-147-31-400 0-544 50-229 130-412 246-558l61-78-42-39c-66-61-86-117-127-347-20-113-36-208-36-213 0-4-43-7-95-7s-105-5-119-11c-34-16-50-63-33-97 24-52 16-52 683-52 614 0 622 0 648 21 20 16 26 29 26 59s-6 43-26 59c-23 18-41 21-134 21-107 0-107 0-120 28-15 32-60 175-57 179 2 1 43-11 92-28 309-103 687-86 970 45 97 45 227 130 264 172 42 47 48 78 25 124-11 21-189 204-421 431l-403 394 33 33c42 44 66 57 80 43 19-19 72-13 93 10 15 17 19 36 19 98 0 117-41 161-149 161-97 0-142-41-111-100 9-17 21-30 27-30 7 0-10-22-37-50-27-27-53-50-57-50-8 0-189 177-749 727-168 165-177 173-215 173-21 0-51-8-66-17m592-698c228-226 588-581 799-789l384-379-28-23c-55-44-221-123-300-143-288-72-609-34-890 107-122 60-193 111-288 201-270 258-397 545-397 896 0 199 38 360 132 553l50 104 62-58c33-33 248-243 476-469m-238-1309c54-38 70-55 77-84 6-20 22-80 36-132s25-98 25-102c0-5-110-8-245-8-215 0-245 2-245 16 0 18 58 350 66 377 3 9 26 33 51 52l45 35 62-54c33-29 91-74 128-100" style="fill:#fff;fill-rule:nonzero" transform="matrix(.1 0 0 -.1 -535 903)"/><path d="M7491 8311c-31-31-26-91 9-107 14-7 63-30 110-52 149-68 235-166 304-346 31-80 41-96 67-106 27-11 34-10 57 7 34 25 39 67 18 157-19 79-43 129-103 214-121 171-389 306-462 233" style="fill:#fff;fill-rule:nonzero" transform="matrix(.1 0 0 -.1 -535 903)"/></svg>

<?xml version="1.0" encoding="UTF-8" standalone="no"?>
<!DOCTYPE svg PUBLIC "-//W3C//DTD SVG 1.1//EN" "http://www.w3.org/Graphics/SVG/1.1/DTD/svg11.dtd">
<svg width="100%" height="100%" viewBox="0 0 352 353" version="1.1" xmlns="http://www.w3.org/2000/svg" xmlns:xlink="http://www.w3.org/1999/xlink" xml:space="preserve" xmlns:serif="http://www.serif.com/" style="fill-rule:evenodd;clip-rule:evenodd;stroke-linejoin:round;stroke-miterlimit:2;">
    <g transform="matrix(1,0,0,1,-535,-121)">
        <g transform="matrix(0.1,0,0,-0.1,0,1024)">
            <path d="M7491,8701C7453,8691 7424,8646 7436,8614C7451,8569 7487,8552 7585,8540C7691,8527 7750,8510 7845,8462C7927,8421 7967,8393 8033,8331C8157,8214 8245,8052 8285,7870C8312,7749 8336,7710 8381,7710C8446,7710 8465,7759 8445,7876C8425,7986 8399,8062 8339,8187C8273,8322 8163,8441 8012,8540C7886,8624 7789,8662 7650,8685C7592,8694 7538,8703 7530,8705C7522,8706 7504,8705 7491,8701Z" style="fill:white;fill-rule:nonzero;"/>
            <path d="M6278,8543C6250,8525 6149,8379 6107,8295C6072,8223 6033,8103 6008,7986C5977,7839 5977,7586 6008,7442C6058,7213 6138,7030 6254,6884L6315,6806L6273,6767C6207,6706 6187,6650 6146,6420C6126,6307 6110,6212 6110,6207C6110,6203 6067,6200 6015,6200C5963,6200 5910,6195 5896,6189C5862,6173 5846,6126 5863,6092C5887,6040 5879,6040 6546,6040C7160,6040 7168,6040 7194,6061C7214,6077 7220,6090 7220,6120C7220,6150 7214,6163 7194,6179C7171,6197 7153,6200 7060,6200C6953,6200 6953,6200 6940,6228C6925,6260 6880,6403 6883,6407C6885,6408 6926,6396 6975,6379C7284,6276 7662,6293 7945,6424C8042,6469 8172,6554 8209,6596C8251,6643 8257,6674 8234,6720C8223,6741 8045,6924 7813,7151L7410,7545L7443,7578C7485,7622 7509,7635 7523,7621C7542,7602 7595,7608 7616,7631C7631,7648 7635,7667 7635,7729C7635,7846 7594,7890 7486,7890C7389,7890 7344,7849 7375,7790C7384,7773 7396,7760 7402,7760C7409,7760 7392,7738 7365,7710C7338,7683 7312,7660 7308,7660C7300,7660 7119,7837 6559,8387C6391,8552 6382,8560 6344,8560C6323,8560 6293,8552 6278,8543ZM6870,7845C7098,7619 7458,7264 7669,7056L8053,6677L8025,6654C7970,6610 7804,6531 7725,6511C7437,6439 7116,6477 6835,6618C6713,6678 6642,6729 6547,6819C6277,7077 6150,7364 6150,7715C6150,7914 6188,8075 6282,8268L6332,8372L6394,8314C6427,8281 6642,8071 6870,7845ZM6632,6536C6686,6498 6702,6481 6709,6452C6715,6432 6731,6372 6745,6320C6759,6268 6770,6222 6770,6218C6770,6213 6660,6210 6525,6210C6310,6210 6280,6212 6280,6226C6280,6244 6338,6576 6346,6603C6349,6612 6372,6636 6397,6655L6442,6690L6504,6636C6537,6607 6595,6562 6632,6536Z" style="fill:white;fill-rule:nonzero;"/>
            <path d="M7491,8311C7460,8280 7465,8220 7500,8204C7514,8197 7563,8174 7610,8152C7759,8084 7845,7986 7914,7806C7945,7726 7955,7710 7981,7700C8008,7689 8015,7690 8038,7707C8072,7732 8077,7774 8056,7864C8037,7943 8013,7993 7953,8078C7832,8249 7564,8384 7491,8311Z" style="fill:white;fill-rule:nonzero;"/>
        </g>
    </g>
</svg>
